X: 1
T: The Flowers Of Edinburgh
R: reel
M: 4/4
L: 1/8
K: Gmaj
|:GE|D2DE G2GA|BGBd cBAG|FGFE DEFG|AFdF E2GE|
D2DE G2GA|BGBd efge|dcBA GFGA|B2 G2 G2:|
|:d2|g2g2 gbag|f2f2 fagf|edef gfed|B2e2 e2ge|
dBGB d2 d2|edef g2fe|dcBA GFGA|B2 G2 G2:|


Tune 2549	Setting 15825

